X:31
T:Rond de Quercy
R:dance
S:https://www.youtube.com/watch?v=l30xcuglcUI
M:6/8
Q:1/4=180
K:G
E A2B | c3 cdc | B2B A2B | c3 cdc | B3 A2B | c3 cdc | B2B A2B | c3 cdc | B2E A2B | 
c3 B2A | B2A G3 | A3 A3 | A2E A2B | c3 B2A | B2A G3 | A3 A3 | A2 |] 

